X: 9726
T: Deerfoot
R: hornpipe
M: 4/4
K: Fmajor
|:c2|cf af gc de|fe gf af ga|bg af gd ba|gf ed cB AB|
cf af gc de|fc af gc de|fe fd cB AG|F2A2F2:|
|:cB|Ac fe dc BA|BG gf ed cB|Ac ag fe dc|cB AB G2 cB|
Ac fe dB gf|ec ag fe dc|df ed cB AG|F2A2F2:|

